flaticon/interaction/user-46.svg

<svg xmlns="http://www.w3.org/2000/svg" width="32" height="32" viewBox="0 0 24 24">
    <path d="M 23.980469 17.117188 C 23.820312 15.453125 22.578125 14.25 21.023438 14.25 C 20.050781 14.25 19.230469 14.839844 18.710938 15.554688 C 18.191406 14.839844 17.375 14.25 16.398438 14.25 C 14.847656 14.25 13.605469 15.453125 13.441406 17.117188 C 13.425781 17.226562 13.382812 17.613281 13.535156 18.21875 C 13.753906 19.113281 14.265625 19.925781 15.011719 20.566406 L 18.398438 23.464844 C 18.488281 23.542969 18.601562 23.582031 18.710938 23.582031 C 18.820312 23.582031 18.933594 23.542969 19.023438 23.464844 L 22.414062 20.566406 C 23.15625 19.925781 23.667969 19.113281 23.890625 18.21875 C 24.039062 17.613281 24 17.226562 23.980469 17.117188 Z M 23.101562 18.023438 C 22.917969 18.753906 22.5 19.417969 21.882812 19.949219 L 18.710938 22.664062 L 15.542969 19.949219 C 14.925781 19.417969 14.503906 18.753906 14.324219 18.023438 C 14.203125 17.53125 14.246094 17.25 14.246094 17.25 L 14.25 17.207031 C 14.351562 16.140625 15.121094 15.0625 16.402344 15.0625 C 17.289062 15.0625 18.015625 15.800781 18.339844 16.53125 L 18.710938 17.367188 L 19.085938 16.527344 C 19.40625 15.796875 20.132812 15.0625 21.023438 15.0625 C 22.304688 15.0625 23.074219 16.140625 23.179688 17.246094 C 23.179688 17.25 23.222656 17.527344 23.101562 18.023438 Z M 23.101562 18.023438"/>
    <path d="M 12.488281 13.140625 C 12.394531 13.023438 12.050781 12.566406 11.714844 11.902344 L 11.699219 11.863281 C 11.695312 11.859375 11.695312 11.855469 11.691406 11.851562 C 11.648438 11.765625 11.605469 11.667969 11.558594 11.570312 L 11.539062 11.527344 C 11.515625 11.472656 11.496094 11.421875 11.472656 11.363281 C 11.464844 11.347656 11.457031 11.328125 11.449219 11.308594 C 11.425781 11.253906 11.40625 11.199219 11.382812 11.136719 C 11.339844 11.027344 11.300781 10.910156 11.265625 10.792969 L 11.234375 10.695312 C 11.195312 10.570312 11.160156 10.441406 11.132812 10.308594 C 11.128906 10.304688 11.128906 10.300781 11.128906 10.300781 L 11.121094 10.269531 L 11.09375 10.140625 L 10.953125 10.050781 C 10.71875 9.898438 10.578125 9.640625 10.578125 9.367188 L 10.578125 7.742188 C 10.578125 7.511719 10.671875 7.300781 10.847656 7.140625 L 10.984375 7.019531 L 10.984375 4.339844 L 10.972656 4.332031 C 10.957031 4.039062 10.976562 3.140625 11.632812 2.390625 C 12.304688 1.621094 13.457031 1.230469 15.050781 1.230469 C 16.640625 1.230469 17.789062 1.617188 18.460938 2.382812 C 19.253906 3.277344 19.125 4.421875 19.121094 4.433594 L 19.117188 7.019531 L 19.253906 7.140625 C 19.429688 7.300781 19.527344 7.511719 19.527344 7.742188 L 19.527344 9.367188 C 19.527344 9.722656 19.292969 10.035156 18.949219 10.140625 C 18.734375 10.207031 18.613281 10.433594 18.679688 10.648438 C 18.746094 10.863281 18.972656 10.984375 19.1875 10.917969 C 19.875 10.703125 20.339844 10.082031 20.339844 9.367188 L 20.339844 7.742188 C 20.339844 7.347656 20.191406 6.96875 19.933594 6.671875 L 19.933594 4.507812 C 19.957031 4.285156 20.042969 2.953125 19.082031 1.855469 C 18.246094 0.902344 16.890625 0.417969 15.050781 0.417969 C 13.210938 0.417969 11.855469 0.902344 11.019531 1.855469 C 10.4375 2.519531 10.242188 3.269531 10.179688 3.808594 C 9.484375 3.449219 8.664062 3.265625 7.730469 3.265625 C 3.503906 3.265625 3.257812 6.867188 3.253906 6.925781 L 3.253906 8.789062 C 2.992188 9.078125 2.847656 9.40625 2.847656 9.738281 L 2.847656 11.140625 C 2.847656 11.582031 3.042969 11.992188 3.378906 12.265625 C 3.714844 13.53125 4.542969 14.488281 4.863281 14.824219 L 4.863281 15.941406 C 4.863281 16.257812 4.6875 16.554688 4.386719 16.71875 L 1.679688 18.417969 C 0.644531 18.980469 0 20.066406 0 21.246094 L 0 22.792969 L 10.984375 22.792969 C 11.207031 22.792969 11.390625 22.609375 11.390625 22.382812 C 11.390625 22.160156 11.207031 21.976562 10.984375 21.976562 L 6.507812 21.976562 L 6.507812 21.066406 C 6.507812 20.023438 7.078125 19.058594 7.996094 18.558594 L 11.625 16.582031 C 12.234375 16.25 12.609375 15.613281 12.609375 14.921875 L 12.609375 13.289062 L 12.515625 13.175781 C 12.515625 13.171875 12.503906 13.160156 12.488281 13.140625 Z M 11.796875 14.921875 C 11.796875 15.316406 11.582031 15.675781 11.238281 15.867188 L 10.160156 16.453125 L 9.894531 16.597656 L 7.605469 17.84375 C 6.425781 18.488281 5.695312 19.722656 5.695312 21.066406 L 5.695312 21.976562 L 0.8125 21.976562 L 0.8125 21.246094 C 0.8125 20.363281 1.296875 19.554688 2.089844 19.117188 L 4.796875 17.421875 C 5.339844 17.125 5.675781 16.558594 5.675781 15.941406 L 5.675781 14.480469 L 5.546875 14.359375 C 5.535156 14.347656 4.453125 13.320312 4.136719 11.933594 L 4.097656 11.773438 L 3.960938 11.683594 C 3.773438 11.5625 3.660156 11.359375 3.660156 11.140625 L 3.660156 9.738281 C 3.660156 9.589844 3.761719 9.417969 3.933594 9.257812 L 4.066406 9.136719 L 4.066406 6.949219 C 4.074219 6.832031 4.285156 4.078125 7.730469 4.078125 C 8.703125 4.078125 9.523438 4.304688 10.167969 4.746094 L 10.167969 6.671875 C 9.910156 6.96875 9.761719 7.347656 9.761719 7.738281 L 9.761719 9.367188 C 9.761719 9.660156 9.847656 9.933594 9.992188 10.175781 C 10.089844 10.347656 10.214844 10.503906 10.371094 10.632812 C 10.375 10.640625 10.378906 10.652344 10.378906 10.664062 C 10.40625 10.753906 10.429688 10.839844 10.453125 10.925781 L 10.488281 11.035156 C 10.496094 11.058594 10.503906 11.078125 10.507812 11.097656 C 10.523438 11.140625 10.535156 11.179688 10.550781 11.222656 C 10.574219 11.292969 10.601562 11.367188 10.628906 11.449219 C 10.640625 11.480469 10.65625 11.507812 10.667969 11.539062 C 10.703125 11.628906 10.738281 11.714844 10.773438 11.800781 C 10.78125 11.816406 10.789062 11.832031 10.792969 11.847656 L 10.820312 11.90625 C 10.828125 11.929688 10.839844 11.953125 10.851562 11.976562 C 10.890625 12.058594 10.929688 12.140625 10.964844 12.21875 C 10.972656 12.234375 10.980469 12.25 10.988281 12.265625 L 11.019531 12.324219 C 11.027344 12.339844 11.035156 12.351562 11.042969 12.367188 C 11.105469 12.492188 11.171875 12.613281 11.234375 12.722656 C 11.246094 12.738281 11.253906 12.753906 11.261719 12.769531 C 11.332031 12.886719 11.398438 12.996094 11.460938 13.09375 C 11.464844 13.097656 11.46875 13.101562 11.46875 13.109375 C 11.605469 13.316406 11.722656 13.476562 11.796875 13.574219 Z M 11.796875 14.921875"/>
</svg>

<svg xmlns="http://www.w3.org/2000/svg" width="32" height="32" viewBox="0 0 24 24">
    <path d="M23.98 17.117c-.16-1.664-1.402-2.867-2.957-2.867-.972 0-1.793.59-2.312 1.305-.52-.715-1.336-1.305-2.313-1.305-1.55 0-2.793 1.203-2.957 2.867-.015.11-.058.496.094 1.102.219.894.73 1.707 1.477 2.347l3.386 2.899a.479.479 0 0 0 .625 0l3.391-2.899c.742-.64 1.254-1.453 1.477-2.347.148-.606.109-.992.09-1.102zm-.878.906c-.184.73-.602 1.395-1.22 1.926l-3.171 2.715-3.168-2.715c-.617-.531-1.04-1.195-1.219-1.926-.12-.492-.078-.773-.078-.773l.004-.043c.102-1.066.871-2.145 2.152-2.145.887 0 1.614.739 1.938 1.47l.37.835.376-.84c.32-.73 1.047-1.465 1.937-1.465 1.282 0 2.051 1.079 2.157 2.184 0 .004.043.281-.078.777zm0 0"/>
    <path d="M12.488 13.14a7.667 7.667 0 0 1-.773-1.238l-.016-.039c-.004-.004-.004-.008-.008-.011-.043-.086-.086-.184-.132-.282l-.02-.043c-.023-.054-.043-.105-.066-.164a.766.766 0 0 1-.024-.054c-.023-.055-.043-.11-.066-.172a4.436 4.436 0 0 1-.117-.344l-.032-.098a4.003 4.003 0 0 1-.101-.386c-.004-.004-.004-.008-.004-.008l-.008-.031-.027-.13-.14-.09a.818.818 0 0 1-.376-.683V7.742c0-.23.094-.441.27-.601l.136-.121V4.34l-.011-.008c-.016-.293.004-1.191.66-1.941.672-.77 1.824-1.16 3.418-1.16 1.59 0 2.738.386 3.41 1.152.793.894.664 2.039.66 2.05l-.004 2.587.137.12c.176.16.273.372.273.602v1.625a.811.811 0 0 1-.578.774.406.406 0 1 0 .238.777 1.623 1.623 0 0 0 1.153-1.55V7.741c0-.394-.149-.773-.406-1.07V4.508c.023-.223.109-1.555-.852-2.653C18.246.902 16.891.418 15.051.418c-1.84 0-3.196.484-4.031 1.437-.582.665-.778 1.415-.84 1.954-.696-.36-1.516-.543-2.45-.543-4.226 0-4.472 3.601-4.476 3.66v1.863c-.262.29-.406.617-.406.95v1.402c0 .441.195.851.53 1.125.337 1.265 1.165 2.222 1.485 2.558v1.117a.887.887 0 0 1-.476.778L1.68 18.418A3.219 3.219 0 0 0 0 21.246v1.547h10.984a.408.408 0 0 0 0-.816H6.508v-.91c0-1.044.57-2.008 1.488-2.508l3.629-1.977c.61-.332.984-.969.984-1.66v-1.633l-.093-.113c0-.004-.012-.016-.028-.035zm-.691 1.782c0 .394-.215.754-.559.945l-1.078.586-.265.145-2.29 1.246a3.668 3.668 0 0 0-1.91 3.222v.91H.812v-.73a2.43 2.43 0 0 1 1.278-2.129l2.707-1.695c.543-.297.879-.863.879-1.48V14.48l-.13-.12c-.01-.012-1.093-1.04-1.41-2.426l-.038-.16-.137-.09a.647.647 0 0 1-.3-.543V9.738c0-.148.1-.32.273-.48l.132-.121V6.949c.008-.117.22-2.87 3.664-2.87.973 0 1.793.226 2.438.667v1.926a1.634 1.634 0 0 0-.406 1.066v1.63c0 .292.086.566.23.808.098.172.223.328.38.457.003.008.007.02.007.031.027.09.05.176.074.262l.035.11c.008.023.016.042.02.062.015.043.027.082.043.125.023.07.05.144.078.226.012.031.027.059.039.09a18.161 18.161 0 0 0 .125.309l.027.058c.008.024.02.047.032.07.039.083.078.165.113.243l.023.047.032.058c.007.016.015.028.023.043.062.125.129.246.191.356a13.5 13.5 0 0 0 .227.371c.004.004.008.008.008.015.136.207.254.368.328.465zm0 0"/>
</svg>
